assets/Umbrella on ground/Flat/umbrella_on_ground_flat.svg

<svg width="32" height="32" viewBox="0 0 32 32" fill="none" xmlns="http://www.w3.org/2000/svg">
<path d="M5.01 29H26.99C28.65 29 30 27.65 30 25.99V18.99C30 17.89 29.11 16.99 28 16.99H4C2.9 16.99 2 17.88 2 18.99V25.99C2 27.65 3.35 29 5.01 29Z" fill="#F9C23C"/>
<path d="M24.28 6.97996L7.15 24.11C6.95 24.31 6.95 24.63 7.15 24.83C7.35 25.03 7.67 25.03 7.87 24.83L25 7.69996C25.2 7.49996 25.2 7.17996 25 6.97996C24.8 6.77996 24.48 6.77996 24.28 6.97996Z" fill="#9D5044"/>
<path d="M22.84 24.9501C23.6 25.7101 24.79 25.7701 25.36 25.0301C29.26 19.9301 28.85 12.5701 24.15 7.87005C19.45 3.17005 12.08 2.75005 6.98002 6.65005C6.24002 7.21005 6.30002 8.40005 7.06002 9.16005L7.82002 9.92005L19 13.0001L22.08 24.1801L22.84 24.9501Z" fill="#F8312F"/>
<path d="M22.0699 24.1801C27.1499 19.1001 28.0699 11.8001 24.1299 7.86006C20.1899 3.92006 12.8899 4.84006 7.81995 9.92006L22.0699 24.1801Z" fill="#E6E6E6"/>
<path d="M18.5 20.6C23.58 15.52 26.1 9.80997 24.13 7.84997C22.16 5.88997 16.46 8.40997 11.38 13.49L18.5 20.6Z" fill="#F8312F"/>
</svg>

<svg xmlns="http://www.w3.org/2000/svg" width="32" height="32" fill="none"><path fill="#F9C23C" d="M5.01 29h21.98c1.66 0 3.01-1.35 3.01-3.01v-7a2 2 0 0 0-2-2H4a2 2 0 0 0-2 2v7C2 27.65 3.35 29 5.01 29Z"/><path fill="#9D5044" d="M24.28 6.98 7.15 24.11c-.2.2-.2.52 0 .72.2.2.52.2.72 0L25 7.7c.2-.2.2-.52 0-.72-.2-.2-.52-.2-.72 0Z"/><path fill="#F8312F" d="M22.84 24.95c.76.76 1.95.82 2.52.08 3.9-5.1 3.49-12.46-1.21-17.16-4.7-4.7-12.07-5.12-17.17-1.22-.74.56-.68 1.75.08 2.51l.76.76L19 13l3.08 11.18.76.77Z"/><path fill="#E6E6E6" d="M22.07 24.18c5.08-5.08 6-12.38 2.06-16.32-3.94-3.94-11.24-3.02-16.31 2.06l14.25 14.26Z"/><path fill="#F8312F" d="M18.5 20.6c5.08-5.08 7.6-10.79 5.63-12.75-1.97-1.96-7.67.56-12.75 5.64l7.12 7.11Z"/></svg>
